src/assets/svgs/refactor/story-decentralisation.svg

<svg fill="none" height="32" viewBox="0 0 28 32" width="28" xmlns="http://www.w3.org/2000/svg"><path d="m14 32c-.2208 0-.4286-.0448-.6234-.1343l-12.649327-5.6391c-.454546-.2014-.727273-.593-.727273-1.0294v-6.2322c0-.4363.272727-.8279.727273-1.0293l4.337667-1.9357-4.337667-1.9357c-.454546-.2014-.727273-.593-.727273-1.0293v-6.2322c0-.43637.272727-.82798.727273-1.02937l12.649327-5.639164c.1948-.0895108.4026-.134266.6234-.134266s.4286.0447552.6234.134266l12.6493 5.639164c.4546.20139.7273.593.7273 1.02937v6.2322c0 .4363-.2727.8279-.7273 1.0293l-4.3376 1.9357 4.3376 1.9357c.4546.2014.7273.593.7273 1.0293v6.2322c0 .4364-.2727.828-.7273 1.0294l-12.6493 5.6391c-.1948.0895-.4026.1343-.6234.1343zm0-2.4615 11.2987-5.0462v-3.6252l-10.6883 4.7665c-.1818.0895-.4026.1342-.6234.1342s-.4286-.0447-.6234-.1342l-10.68828-4.7665v3.6252l11.31168 5.0462zm0-6.2322 9.7273-4.3413-3.7273-1.6559-5.3766 2.3944c-.1948.0895-.4026.1343-.6234.1343s-.4286-.0448-.6234-.1343l-5.3766-2.3944-3.72727 1.6559zm0-5.9413 11.2987-5.0349v-3.6252l-10.6883 4.7664c-.1948.0895-.4026.1343-.6234.1343s-.4286-.0448-.6234-.1343l-10.67529-4.7664v3.6252zm0-6.2321 9.7143-4.34129-9.7143-4.34126-9.72727 4.34126z" fill="#101010"/></svg>

<svg width="28" height="32" viewBox="0 0 28 32" fill="none" xmlns="http://www.w3.org/2000/svg">
<path id="Decentralisation" d="M14 32C13.7792 32 13.5714 31.9552 13.3766 31.8657L0.727273 26.2266C0.272727 26.0252 0 25.6336 0 25.1972V18.965C0 18.5287 0.272727 18.1371 0.727273 17.9357L5.06494 16L0.727273 14.0643C0.272727 13.8629 0 13.4713 0 13.035V6.8028C0 6.36643 0.272727 5.97482 0.727273 5.77343L13.3766 0.134266C13.5714 0.0447552 13.7792 0 14 0C14.2208 0 14.4286 0.0447552 14.6234 0.134266L27.2727 5.77343C27.7273 5.97482 28 6.36643 28 6.8028V13.035C28 13.4713 27.7273 13.8629 27.2727 14.0643L22.9351 16L27.2727 17.9357C27.7273 18.1371 28 18.5287 28 18.965V25.1972C28 25.6336 27.7273 26.0252 27.2727 26.2266L14.6234 31.8657C14.4286 31.9552 14.2208 32 14 32ZM14 29.5385L25.2987 24.4923V20.8671L14.6104 25.6336C14.4286 25.7231 14.2078 25.7678 13.987 25.7678C13.7662 25.7678 13.5584 25.7231 13.3636 25.6336L2.67532 20.8671V24.4923L13.987 29.5385H14ZM14 23.3063L23.7273 18.965L20 17.3091L14.6234 19.7035C14.4286 19.793 14.2208 19.8378 14 19.8378C13.7792 19.8378 13.5714 19.793 13.3766 19.7035L8 17.3091L4.27273 18.965L14 23.3063ZM14 17.365L25.2987 12.3301V8.7049L14.6104 13.4713C14.4156 13.5608 14.2078 13.6056 13.987 13.6056C13.7662 13.6056 13.5584 13.5608 13.3636 13.4713L2.68831 8.7049V12.3301L14 17.365ZM14 11.1329L23.7143 6.79161L14 2.45035L4.27273 6.79161L14 11.1329Z" fill="#101010"/>
</svg>
